F1 Grump/assets/track outlines/Baku City - White_1.svg

<svg width="3805" height="2793" viewBox="0 0 3805 2793" fill="none" xmlns="http://www.w3.org/2000/svg">
<g clip-path="url(#clip0_13_609)">
<path d="M3798.63 617.39C3795.12 622.03 3790.17 625.789 3783.63 629.039C3736.45 652.699 3408.59 790.8 3029 950.69C2597.66 1132.37 2108.77 1338.3 1920.39 1423.16C1878.53 1442.03 1815.66 1493.68 1760.21 1539.27C1726.58 1566.91 1694.82 1593.01 1668.84 1611.01C1559.77 1686.58 1330.84 1858.94 1202.01 1957.59C1198.19 1965.75 1195.07 1990.2 1192.76 2008.29C1186.65 2056.13 1179.05 2115.57 1144.53 2161.29C1144.26 2161.65 1143.97 2162.02 1143.68 2162.39C1108.14 2208.61 1052.91 2254.82 994.429 2303.74C937.609 2351.26 878.869 2400.39 839.429 2449.27C802.939 2494.64 764.189 2577.85 733.159 2644.74C683.449 2751.96 662.869 2796.31 619.949 2788.68C604.619 2785.92 565.759 2767.35 375.349 2671.68C256.029 2611.75 75.6986 2521.16 49.4386 2514.68C3.6086 2505.24 10.5286 2453.37 17.8386 2398.47C22.4786 2363.78 28.2386 2320.59 23.9186 2288.04C21.6486 2270.97 18.7386 2252.89 15.7486 2234.33C3.97861 2161.2 -9.37139 2078.33 9.60861 2015.25C22.2386 1973.25 33.8386 1932.98 44.6086 1895.74C85.3386 1754.47 105.999 1685.28 132.609 1655.74C190.099 1591.55 679.379 1366 780.999 1336.5C796.089 1332.13 811.449 1333.9 824.299 1341.5C850.439 1356.93 857.449 1389.36 864.229 1420.71C866.299 1430.21 869.539 1445.28 872.459 1452.31C878.459 1452.88 892.959 1450.19 901.159 1448.66C918.159 1445.5 935.639 1442.23 952.699 1446.66C970.769 1451.33 981.819 1463.92 989.119 1474.48C1001.26 1467.82 1017.6 1460.97 1035.54 1468.27C1041.54 1470.75 1046.89 1474.61 1051.14 1479.52C1055.39 1484.44 1058.43 1490.28 1060.02 1496.58C1074.59 1551.58 1121.02 1688.41 1143.74 1746.58C1146.88 1754.58 1149.08 1765.13 1152.74 1783.12C1153.43 1786.56 1154.3 1790.83 1155.24 1795.34C1170.73 1784.66 1187.93 1772.15 1196.89 1765.12C1249.61 1723.78 1365.84 1635.45 1469.97 1561.58C1496.28 1542.91 1527.36 1521.58 1558.31 1500.36C1608.62 1465.85 1664.78 1427.36 1690.71 1406.36C1687.23 1400.36 1682.09 1392.73 1678.54 1387.47C1661.82 1362.76 1642.87 1334.78 1655.54 1304.92C1681.26 1244.37 1930.88 1122.24 1933.4 1121.01C2005.01 1086.14 2076.4 1056.51 2128.5 1034.89C2145.56 1027.81 2162.94 1020.61 2175.9 1014.98C2165.57 986.279 2143.8 934.93 2125.44 891.64C2035.83 680.28 2016.44 629.58 2063.86 608.45C2093.24 595.35 2133.34 577.21 2181.58 555.45C2366.06 472.11 2674.81 332.61 2953.31 216.79C3129.77 143.43 3297.61 82.1595 3408.67 41.6195C3453 25.4295 3488.03 12.6195 3512.67 3.09954C3549.59 -11.1905 3568.54 26.0295 3594.78 77.5195C3612.84 112.98 3636.23 162.71 3662.44 221.32C3698.79 302.68 3736.44 392.06 3763.12 460.38C3800.4 555.83 3814.79 596.02 3798.63 617.38M1143.47 1913.27C1146.77 1908.88 1150.66 1904.95 1155.03 1901.61C1266.03 1816.61 1507.46 1634.03 1626.86 1551.32C1650.36 1535.03 1680.98 1509.87 1713.39 1483.22C1775.3 1432.34 1839.33 1379.72 1890.17 1356.81C2079.38 1271.57 2568.72 1065.47 3000.46 883.609C3324.84 746.999 3633.14 617.14 3726.87 575.08C3699.03 484.08 3560.46 162.87 3513.58 80.6595C3491.71 88.8395 3465.04 98.5695 3433.76 109.98C3323.32 150.31 3156.41 211.24 2981.46 283.98C2704 399.36 2395.87 538.57 2211.79 621.74C2174.4 638.63 2141.88 653.33 2115.43 665.19C2126.76 706.52 2167.43 802.43 2193.16 863.19C2253.83 1006.28 2259.95 1025.04 2252.78 1045.64C2246.06 1065 2237.57 1068.54 2156.61 1102.14C2105.35 1123.41 2035.16 1152.53 1965.61 1186.43C1848.79 1243.32 1754.61 1303.9 1728.06 1328.79C1731.34 1334.44 1736.26 1341.7 1739.65 1346.7C1756.15 1371.1 1786.98 1416.53 1751.18 1450.58C1728.62 1472.05 1666.18 1514.9 1599.99 1560.27C1569.37 1581.27 1538.65 1602.35 1512.62 1620.83C1409.56 1693.94 1294.54 1781.34 1242.37 1822.25C1241.65 1822.81 1170.43 1878.48 1145.07 1884.12C1139.87 1885.28 1134.49 1885.39 1129.24 1884.45C1124 1883.5 1119 1881.52 1114.53 1878.61C1095.38 1866.33 1089.78 1842.44 1080.72 1797.74C1078.91 1788.74 1076.41 1776.44 1075.2 1772.97C1055.46 1722.38 1019.68 1618.22 999.299 1551.1C990.979 1554.1 981.699 1555.69 971.659 1553.71C949.659 1549.41 938.479 1531.59 931.799 1520.94C931.189 1519.94 930.429 1518.75 929.679 1517.61C925.449 1518.23 919.179 1519.39 914.519 1520.28C889.369 1524.95 854.949 1531.38 826.609 1510.36C804.999 1494.36 798.609 1464.8 792.439 1436.23C790.899 1429.12 788.719 1419.03 786.439 1411.23C648.859 1457.46 222.689 1664.84 187.249 1704.14C171.099 1722.14 142.529 1820.55 115.149 1915.55C104.329 1953.04 92.6486 1993.55 79.9286 2035.86C65.7786 2082.97 77.7186 2157.14 88.2386 2222.59C91.3386 2241.85 94.3486 2260.59 96.6986 2278.26C102.279 2320.35 95.8186 2368.82 90.6186 2407.77C88.7986 2421.41 86.5086 2438.56 85.7686 2450.25C129.629 2467.4 227.029 2515.45 408.669 2606.69C490.089 2647.6 580.499 2693 618.939 2710.54C631.609 2689.45 651.199 2647.21 666.339 2614.54C700.749 2540.34 739.909 2456.16 782.089 2403.86C826.089 2349.4 887.639 2297.92 947.149 2248.14C1002.43 2201.89 1054.67 2158.2 1085.29 2118.37C1107.88 2088.28 1114.76 2039 1119.82 1999.47C1124.42 1963.36 1128.24 1933.47 1143.49 1913.32" fill="white"/>
</g>
<defs>
<clipPath id="clip0_13_609">
<rect width="3805" height="2793" fill="white"/>
</clipPath>
</defs>
</svg>

<svg xmlns="http://www.w3.org/2000/svg" viewBox="0 0 3805.19 3449.87"><defs><style>.cls-1{fill:#fff;}</style></defs><title>Baku City - White_1</title><g id="Layer_2" data-name="Layer 2"><g id="Layer_1-2" data-name="Layer 1"><path class="cls-1" d="M757.79,3095.36H884.55q52,0,78,21.46t26,67.42q0,32.84-11.36,51.26t-33.59,29q55.54,19.18,55.55,82.31,0,52.53-27.77,75.25t-80.3,22.72H757.79ZM883,3129.7H796.68v120.7h89.89q32.31,0,47.22-15.41t14.89-46.46q0-31.05-15.9-44.94T883,3129.7Zm4,154.53H796.68v126.25H889.6q34.33,0,52.27-14.39t17.92-50.75q0-19.2-7.32-32.32T933,3294.33A110,110,0,0,0,887.07,3284.23Z"/><path class="cls-1" d="M1033,3444.82l96-349.46h84.84l96,349.46h-38.38l-25.25-89.89H1096.65l-25.25,89.89Zm125.24-316.13-53,191.4h132.3l-53-191.4Z"/><path class="cls-1" d="M1403.69,3444.82H1364.8V3095.36h38.89V3258l57.57-2,89.38-160.59h44.44l-100,175.74,105.55,173.72h-46l-92.92-154.53-58.07,2Z"/><path class="cls-1" d="M1688.5,3339.78q0,75.75,81.81,75.75,42.42,0,63.88-17.93t21.46-57.82V3095.36H1894v243.41q0,58.59-31,84.84t-91.66,26.26q-60.6,0-91.15-26.26t-30.56-84.84V3095.36h38.89Z"/><path class="cls-1" d="M2299.54,3439.27q-52,10.61-93.42,10.6t-66.92-11.36a83.84,83.84,0,0,1-39.39-35.35q-13.89-24-19.19-55t-5.3-77.51q0-46.47,5.3-78t19.19-55.8a82.28,82.28,0,0,1,39.14-35.35q25.25-11.1,65.65-11.11t94.94,11.11l-1.51,32.83q-51-9.09-90.91-9.09-55.54,0-73.47,33.07t-17.93,112.87q0,39.9,3.28,64.14a140.64,140.64,0,0,0,12.88,43.68q9.59,19.44,28,27.77t54,8.34q35.61,0,84.09-9.09Z"/><path class="cls-1" d="M2363.17,3444.82V3095.36h38.88v349.46Z"/><path class="cls-1" d="M2451,3130.2v-34.84h252.5v34.84H2597v314.62h-38.38V3130.2Z"/><path class="cls-1" d="M2865.63,3444.82h-38.89v-147l-111.6-202.51h43.93L2845.93,3259l86.86-163.62h43.94l-111.1,202.51Z"/><path class="cls-1" d="M3798.63,617.39c-3.51,4.64-8.46,8.4-15,11.65C3736.45,652.7,3408.59,790.8,3029,950.69c-431.34,181.68-920.23,387.61-1108.61,472.47-41.86,18.87-104.73,70.52-160.18,116.11-33.63,27.64-65.39,53.74-91.37,71.74-109.07,75.57-338,247.93-466.83,346.58-3.82,8.16-6.94,32.61-9.25,50.7-6.11,47.84-13.71,107.28-48.23,153-.27.36-.56.73-.85,1.1-35.54,46.22-90.77,92.43-149.25,141.35-56.82,47.52-115.56,96.65-155,145.53-36.49,45.37-75.24,128.58-106.27,195.47-49.71,107.22-70.29,151.57-113.21,143.94-15.33-2.76-54.19-21.33-244.6-117-119.32-59.93-299.65-150.52-325.91-157-45.83-9.44-38.91-61.31-31.6-116.21,4.64-34.69,10.4-77.88,6.08-110.43-2.27-17.07-5.18-35.15-8.17-53.71-11.77-73.13-25.12-156-6.14-219.08,12.63-42,24.23-82.27,35-119.51,40.73-141.27,61.39-210.46,88-240C190.1,1591.55,679.38,1366,781,1336.5c15.09-4.37,30.45-2.6,43.3,5,26.14,15.43,33.15,47.86,39.93,79.21,2.07,9.5,5.31,24.57,8.23,31.6,6,.57,20.5-2.12,28.7-3.65,17-3.16,34.48-6.43,51.54-2,18.07,4.67,29.12,17.26,36.42,27.82,12.14-6.66,28.48-13.51,46.42-6.21a41.67,41.67,0,0,1,24.48,28.31c14.57,55,61,191.83,83.72,250,3.14,8,5.34,18.55,9,36.54.69,3.44,1.56,7.71,2.5,12.22,15.49-10.68,32.69-23.19,41.65-30.22,52.72-41.34,168.95-129.67,273.08-203.54,26.31-18.67,57.39-40,88.34-61.22,50.31-34.51,106.47-73,132.4-94-3.48-6-8.62-13.63-12.17-18.89-16.72-24.71-35.67-52.69-23-82.55,25.72-60.55,275.34-182.68,277.86-183.91,71.61-34.87,143-64.5,195.1-86.12,17.06-7.08,34.44-14.28,47.4-19.91-10.33-28.7-32.1-80.05-50.46-123.34-89.61-211.36-109-262.06-61.58-283.19,29.38-13.1,69.48-31.24,117.72-53,184.48-83.34,493.23-222.84,771.73-338.66,176.46-73.36,344.3-134.63,455.36-175.17,44.33-16.19,79.36-29,104-38.52,36.92-14.29,55.87,22.93,82.11,74.42,18.06,35.46,41.45,85.19,67.66,143.8,36.35,81.36,74,170.74,100.68,239.06,37.28,95.45,51.67,135.64,35.51,157M1143.47,1913.27a60.48,60.48,0,0,1,11.56-11.66c111-85,352.43-267.58,471.83-350.29,23.5-16.29,54.12-41.45,86.53-68.1,61.91-50.88,125.94-103.5,176.78-126.41,189.21-85.24,678.55-291.34,1110.29-473.2C3324.84,747,3633.14,617.14,3726.87,575.08c-27.84-91-166.41-412.21-213.29-494.42-21.87,8.18-48.54,17.91-79.82,29.32-110.44,40.33-277.35,101.26-452.3,174C2704,399.36,2395.87,538.57,2211.79,621.74c-37.39,16.89-69.91,31.59-96.36,43.45,11.33,41.33,52,137.24,77.73,198,60.67,143.09,66.79,161.85,59.62,182.45-6.72,19.36-15.21,22.9-96.17,56.5-51.26,21.27-121.45,50.39-191,84.29-116.82,56.89-211,117.47-237.55,142.36,3.28,5.65,8.2,12.91,11.59,17.91,16.5,24.4,47.33,69.83,11.53,103.88-22.56,21.47-85,64.32-151.19,109.69-30.62,21-61.34,42.08-87.37,60.56-103.06,73.11-218.08,160.51-270.25,201.42-.72.56-71.94,56.23-97.3,61.87a40,40,0,0,1-30.54-5.51c-19.15-12.28-24.75-36.17-33.81-80.87-1.81-9-4.31-21.3-5.52-24.77-19.74-50.59-55.52-154.75-75.9-221.87-8.32,3-17.6,4.59-27.64,2.61-22-4.3-33.18-22.12-39.86-32.77-.61-1-1.37-2.19-2.12-3.33-4.23.62-10.5,1.78-15.16,2.67-25.15,4.67-59.57,11.1-87.91-9.92-21.61-16-28-45.56-34.17-74.13-1.54-7.11-3.72-17.2-6-25-137.58,46.23-563.75,253.61-599.19,292.91-16.15,18-44.72,116.41-72.1,211.41-10.82,37.49-22.5,78-35.22,120.31-14.15,47.11-2.21,121.28,8.31,186.73,3.1,19.26,6.11,38,8.46,55.67,5.58,42.09-.88,90.56-6.08,129.51-1.82,13.64-4.11,30.79-4.85,42.48,43.86,17.15,141.26,65.2,322.9,156.44,81.42,40.91,171.83,86.31,210.27,103.85,12.67-21.09,32.26-63.33,47.4-96,34.41-74.2,73.57-158.38,115.75-210.68,44-54.46,105.55-105.94,165.06-155.72,55.28-46.25,107.52-89.94,138.14-129.77,22.59-30.09,29.47-79.37,34.53-118.9,4.6-36.11,8.42-66,23.67-86.15"/></g></g></svg>
